X:44
T:Trail of the Lonesome Pine, The (key of G)
I:Trail of the Lonesome Pine, The	S-T	F	square
C:S-T
M:C|
Z:Transcribed to abc by Mary Lou Knack
R:square
$NormLMargin
$NormRMargin
P:Intro
K:Gmaj
z4 _A2=A2| "D7"B4 A2F2| D4 A4| "G"G8-| G2z2 |
$SmallLMargin
$SmallRMargin
P:
|:B2_B2| "G"B4 D4| D2E2 D2B,2| "A7"^C4 A4-| A4 _A2=A2| "D7"B4 A2F2| D4 A4| "G"G8-| G4 B2_B2|
"G"B4 D4| D2E2 D2B,2| "A"^C4 E4| A8| "A7"A4 A4| A2A2 G2E2| "D"F2F2 G2_A2| "D7"A4 B2_B2|
"G7"B8-| B4 A2G2| A2B2 G2A2-| A4 B2G2| "C"A2 G6-| G4 G2E2| G2A2 _B2"B"=B2-| B4 "D7"B2_B2|
"D7"B4 D4| D2E2 D2B,2| "A7"^C4 A4-| A4 _A2=A2 |1 \
"D7"B4 A2F2| D4 A4| "G"G8-| G4 :|
P:Last time
 [2 "D7"B4 d2B2| d4 B4| "G"G8-| G4 |]
